blockchains/ethereum/assets/0xF57e7e7C23978C3cAEC3C3548E3D615c346e79fF/logo.svg

<svg fill="none" height="250" viewBox="0 0 250 250" width="250" xmlns="http://www.w3.org/2000/svg" xmlns:xlink="http://www.w3.org/1999/xlink"><clipPath id="a"><path d="m0 0h250v250h-250z"/></clipPath><clipPath id="b"><path d="m41.6667 52.0859h166.667v135.417h-166.667z"/></clipPath><mask id="c" height="136" maskUnits="userSpaceOnUse" width="168" x="41" y="52"><path d="m208.333 52.0859h-166.6663v135.4171h166.6663z" fill="#fff"/></mask><g clip-path="url(#a)"><path clip-rule="evenodd" d="m250 125c0 69.036-55.964 125-125 125-69.0359 0-125-55.964-125-125 0-69.0359 55.9641-125 125-125 69.036 0 125 55.9641 125 125z" fill="#fff" fill-rule="evenodd"/><g clip-path="url(#b)"><g fill="#17b5cb" mask="url(#c)"><path d="m190.468 52.0859h17.506l-70.984 81.0101c-1.798 2.038-1.918 5.153-.119 7.31l40.887 47.576h-18.226l-37.769-44.1-1.919-2.397c-1.798-2.037-1.678-5.273.12-7.31z"/><path d="m151.019 140.406c-1.199-1.318-1.558-3.236-1.199-4.913.36-.959.96-1.918 1.679-2.637l4.676-5.153 52.159 60.279h-16.547s-30.576-35.712-40.768-47.576z"/><path d="m59.8922 187.982h-18.2255l55.8753-64.593c1.7986-2.037 1.7986-5.153 0-7.19l-55.3956-64.1131h17.506l55.7556 64.5921c1.439 1.918 1.678 4.674.12 6.472-14.629 16.897-55.6358 64.832-55.6358 64.832z"/><path d="m90.3478 52.0859h-16.7865l51.6787 59.7991s.12-.12 5.875-6.951c1.559-1.797 1.919-4.074.12-5.8717-10.791-11.025-40.8872-46.9764-40.8872-46.9764z"/><path d="m140.707 93.7895 35.852-41.7036h-17.027l-18.705 21.8105-5.395 6.3514c-1.799 2.0373-1.919 5.153-.12 7.3101 1.319 1.5579 5.395 6.2316 5.395 6.2316z"/><path d="m109.532 146.281-35.8508 41.704h16.9064l18.7054-21.811 5.395-6.351c1.799-2.037 1.919-5.153.12-7.31-1.319-1.558-5.276-6.232-5.276-6.232z"/></g></g></g></svg>

<svg width="250" height="250" viewBox="0 0 250 250" fill="none" xmlns="http://www.w3.org/2000/svg">
<g clip-path="url(#clip0_48_12809)">
<path fill-rule="evenodd" clip-rule="evenodd" d="M250 125C250 194.036 194.036 250 125 250C55.9641 250 0 194.036 0 125C0 55.9641 55.9641 0 125 0C194.036 0 250 55.9641 250 125Z" fill="white"/>
<g clip-path="url(#clip1_48_12809)">
<mask id="mask0_48_12809" style="mask-type:luminance" maskUnits="userSpaceOnUse" x="41" y="52" width="168" height="136">
<path d="M208.333 52.0859H41.6667V187.503H208.333V52.0859Z" fill="white"/>
</mask>
<g mask="url(#mask0_48_12809)">
<path d="M190.468 52.0859H207.974L136.99 133.096C135.192 135.134 135.072 138.249 136.871 140.406L177.758 187.982H159.532L121.763 143.882L119.844 141.485C118.046 139.448 118.166 136.212 119.964 134.175L190.468 52.0859Z" fill="#17B5CB"/>
<path d="M151.019 140.406C149.82 139.088 149.461 137.17 149.82 135.493C150.18 134.534 150.78 133.575 151.499 132.856L156.175 127.703L208.334 187.982H191.787C191.787 187.982 161.211 152.27 151.019 140.406Z" fill="#17B5CB"/>
<path d="M59.8922 187.982H41.6667L97.542 123.389C99.3406 121.352 99.3406 118.236 97.542 116.199L42.1464 52.0859H59.6524L115.408 116.678C116.847 118.596 117.086 121.352 115.528 123.15C100.899 140.047 59.8922 187.982 59.8922 187.982Z" fill="#17B5CB"/>
<path d="M90.3478 52.0859H73.5613L125.24 111.885C125.24 111.885 125.36 111.765 131.115 104.934C132.674 103.137 133.034 100.86 131.235 99.0623C120.444 88.0373 90.3478 52.0859 90.3478 52.0859Z" fill="#17B5CB"/>
<path d="M140.707 93.7895L176.559 52.0859H159.532L140.827 73.8964L135.432 80.2478C133.633 82.2851 133.513 85.4008 135.312 87.5579C136.631 89.1158 140.707 93.7895 140.707 93.7895Z" fill="#17B5CB"/>
<path d="M109.532 146.281L73.6812 187.985H90.5876L109.293 166.174L114.688 159.823C116.487 157.786 116.607 154.67 114.808 152.513C113.489 150.955 109.532 146.281 109.532 146.281Z" fill="#17B5CB"/>
</g>
</g>
</g>
<defs>
<clipPath id="clip0_48_12809">
<rect width="250" height="250" fill="white"/>
</clipPath>
<clipPath id="clip1_48_12809">
<rect width="166.667" height="135.417" fill="white" transform="translate(41.6667 52.0859)"/>
</clipPath>
</defs>
</svg>
